app/static/common/empty-no-commit.svg

<?xml version="1.0" encoding="UTF-8"?>
<svg width="252px" height="123px" viewBox="0 0 252 123" version="1.1" xmlns="http://www.w3.org/2000/svg" xmlns:xlink="http://www.w3.org/1999/xlink">
    <!-- Generator: Sketch 44.1 (41455) - http://www.bohemiancoding.com/sketch -->
    <title>empty-no-commit</title>
    <desc>Created with Sketch.</desc>
    <defs></defs>
    <g id="Page-1" stroke="none" stroke-width="1" fill="none" fill-rule="evenodd">
        <g id="empty-no-commit">
            <g id="Shape">
                <path d="M116.976,35.513 C117.191,41.575 112.451,46.665 106.388,46.88 C102.263569,47.0275146 98.4048817,44.8493727 96.4,41.242 C94.24,41.515 92.394,42.229 91.364,43.612 C90.839,44.312 90.514,43.827 90.601,43.345 C91.041,40.927 92.147,37.589 95.041,35.138 C95.421,29.596 99.936,25.125 105.611,24.924 C111.671,24.709 116.761,29.45 116.977,35.514" fill-opacity="0.75" fill="#AFF4B0" fill-rule="nonzero"></path>
                <path d="M105.147,37.367 C104.947,36.717 105.315,36.019 105.967,35.817 L106.557,35.637 C106.71545,35.5904196 106.848454,35.4819707 106.925979,35.3361416 C107.003503,35.1903125 107.019011,35.019401 106.969,34.862 L106.604,33.678 C106.557233,33.5197579 106.448645,33.3870524 106.30279,33.3098903 C106.156935,33.2327282 105.986131,33.2176265 105.829,33.268 L104.646,33.632 C104.487831,33.6785435 104.355133,33.7869366 104.277955,33.9326326 C104.200778,34.0783285 104.185651,34.2490012 104.236,34.406 L104.416,34.999 L102.048,35.725 C101.501,33.949 102.732,31.627 104.508,31.08 C106.284,30.535 108.424,31.174 108.971,32.95 C109.751,35.484 107.511,36.638 107.511,36.638 L107.876,37.823 L105.508,38.553 L105.144,37.367 L105.147,37.367 Z M105.783,39.439 L108.153,38.711 L108.88,41.079 L106.512,41.807 L105.784,39.437 L105.783,39.439 Z" fill="#F5F5F5" fill-rule="nonzero"></path>
                <path d="M243.987,14.19 C244.007264,15.3257093 243.412968,16.3839279 242.432654,16.9577127 C241.452339,17.5314975 240.238661,17.5314975 239.258346,16.9577127 C238.278032,16.3839279 237.683736,15.3257093 237.704,14.19 C237.734566,12.4768443 239.132072,11.1040513 240.8455,11.1040513 C242.558928,11.1040513 243.956434,12.4768443 243.987,14.19 L243.987,14.19 Z M3.608,81.688 C3.63275574,82.2429834 3.35077424,82.7667391 2.87384691,83.0516245 C2.39691958,83.3365099 1.80208042,83.3365099 1.32515309,83.0516245 C0.848225765,82.7667391 0.566244263,82.2429834 0.591,81.688 C0.62056747,80.8759704 1.28743229,80.2329454 2.1,80.2329454 C2.91256771,80.2329454 3.57943253,80.8759704 3.609,81.688 L3.608,81.688 Z M209.14,71.482 L208.224,69.752 C208.179861,69.6690374 208.111963,69.6011388 208.029,69.557 L206.299,68.642 C206.145537,68.5604154 206.049624,68.4008012 206.049624,68.227 C206.049624,68.0531988 206.145537,67.8935846 206.299,67.812 L208.029,66.896 C208.111666,66.8518008 208.179226,66.7838919 208.223,66.701 L209.138,64.971 C209.219585,64.8175372 209.379199,64.7216241 209.553,64.7216241 C209.726801,64.7216241 209.886415,64.8175372 209.968,64.971 L210.883,66.701 C210.926879,66.7844064 210.994819,66.852695 211.078,66.897 L212.808,67.812 C212.962513,67.8932427 213.059267,68.0534305 213.059267,68.228 C213.059267,68.4025695 212.962513,68.5627573 212.808,68.644 L211.078,69.559 C210.994893,69.6034047 210.926979,69.6716672 210.883,69.755 L209.968,71.485 C209.886415,71.6384628 209.726801,71.7343759 209.553,71.7343759 C209.379199,71.7343759 209.219585,71.6384628 209.138,71.485 L209.14,71.482 Z M130.657,26.926 L131.232,25.056 C131.26099,24.9659421 131.26099,24.8690579 131.232,24.779 L130.657,22.907 C130.606591,22.7408945 130.65184,22.560528 130.774689,22.4378888 C130.897537,22.3152496 131.077981,22.2703075 131.244,22.321 L133.114,22.897 C133.204016,22.9240204 133.299984,22.9240204 133.39,22.897 L135.26,22.321 C135.622,22.209 135.96,22.547 135.848,22.907 L135.272,24.777 C135.244814,24.8676728 135.244814,24.9643272 135.272,25.055 L135.848,26.925 C135.898896,27.0912395 135.853866,27.271996 135.730931,27.3949308 C135.607996,27.5178656 135.427239,27.5628957 135.261,27.512 L133.391,26.936 C133.30113,26.9080045 133.20487,26.9080045 133.115,26.936 L131.245,27.512 C131.078761,27.5628957 130.898004,27.5178656 130.775069,27.3949308 C130.652134,27.271996 130.607104,27.0912395 130.658,26.925 L130.657,26.926 Z M230.613,109.753 L230.613,115.613 L230.613,109.753 Z M233.544,112.684 L227.684,112.684 L233.544,112.684 Z M98.533,0.593 L94.388,4.738 L98.533,0.593 Z M98.533,4.738 L94.388,0.593 L98.533,4.738 Z M172.25,44.593 L170.66,46.183 L172.25,44.593 Z M176.672,40.17 L175.082,41.76 L176.672,40.17 Z M172.25,44.593 C173.031569,45.372596 174.29698,45.3715296 175.077234,44.5906176 C175.857488,43.8097055 175.857488,42.5442945 175.077234,41.7633824 C174.29698,40.9824704 173.031569,40.981404 172.25,41.761 C171.874264,42.1366488 171.66317,42.6461904 171.66317,43.1775 C171.66317,43.7088096 171.874264,44.2183512 172.25,44.594 L172.25,44.593 Z M244.307,50.14 C244.306643,50.5931914 244.064538,51.011767 243.671884,51.2380533 C243.27923,51.4643397 242.795681,51.4639585 242.403384,51.2370533 C242.011087,51.0101482 241.769643,50.5911914 241.77,50.138 C241.77,49.4374268 242.337927,48.8695 243.0385,48.8695 C243.739073,48.8695 244.307,49.4374268 244.307,50.138 L244.307,50.14 Z M180.938,81.688 C180.938,82.3882971 180.370297,82.956 179.67,82.956 C178.969703,82.956 178.402,82.3882971 178.402,81.688 C178.402,80.9877029 178.969703,80.42 179.67,80.42 C180.370297,80.42 180.938,80.9877029 180.938,81.688 Z M249.48,78.263 L248.803,76.983 L247.523,76.306 L248.803,75.628 L249.48,74.348 L250.157,75.628 L251.437,76.306 L250.157,76.983 L249.48,78.263 Z M25.21,104.615 L24.534,103.335 L23.254,102.658 L24.534,101.981 L25.211,100.701 L25.889,101.981 L27.169,102.659 L25.889,103.336 L25.21,104.615 Z M197.08,9.957 C196.690581,9.95664273 196.330551,10.1640654 196.135532,10.501134 C195.940513,10.8382025 195.940132,11.2537082 196.134532,11.591134 C196.328933,11.9285598 196.688581,12.1366427 197.078,12.137 C197.67999,12.137 198.168,11.6489904 198.168,11.047 C198.168,10.4450096 197.67999,9.957 197.078,9.957 L197.08,9.957 Z M68.758,16.24 C68.1560096,16.24 67.668,16.7280096 67.668,17.33 C67.668,17.9319904 68.1560096,18.42 68.758,18.42 C69.3599904,18.42 69.848,17.9319904 69.848,17.33 C69.848,16.7280096 69.3599904,16.24 68.758,16.24 Z M198.5,106.187 L198.5,109.027 L198.5,106.187 Z M199.918,107.606 L197.078,107.606 L199.918,107.606 Z M31.29,57.01 L32.21,56.727 L33.134,57.011 L32.85,56.089 L33.134,55.167 L32.211,55.451 L31.291,55.167 L31.574,56.089 L31.29,57.01 Z M15.867,19.784 L18.319,21.124 L15.866,22.466 L14.526,24.918 L13.184,22.466 L10.732,21.126 L13.184,19.784 L14.524,17.332 L15.867,19.784 Z M62.93,86.8 L63.715,89.48 L61.035,88.695 L58.351,89.481 L59.138,86.801 L58.352,84.117 L61.036,84.904 L63.716,84.117 L62.93,86.8 Z" stroke="#AFF4B0" stroke-width="1.186" stroke-linecap="round" stroke-linejoin="round"></path>
                <path d="M182.117,115.044 C170.601,106.648 145.847,101.339 120.235,101.341 C94.625,101.344 69.868,106.657 58.35,115.056" stroke="#AFF4B0" stroke-linecap="round" stroke-linejoin="round"></path>
                <path d="M82.82,105.32 L84.545,101.34 C84.545,101.34 90.563,99.294 97.129,99.294 L100.092,102.444 M145.413,111.556 C144.221,112.016 143.453,112.696 143.33,113.536 C143.026,115.593 146.69,117.838 151.515,118.549 C156.339,119.259 160.495,118.169 160.799,116.112 C161.099,114.055 157.436,111.81 152.612,111.099 M160.8,116.113 C160.08,120.98 163.513,122.628 163.513,122.628 M143.33,113.536 C142.612,118.403 138.85,118.989 138.85,118.989 M146.436,117.05 C146.296,119.517 144.396,120.806 144.396,120.806 M158.543,115.78 C157.935,114.103 153.41,112.866 151.555,112.877" stroke="#AFF4B0" stroke-linecap="round" stroke-linejoin="round"></path>
                <path d="M123.175,115.055 C123.175,115.789 118.2,116.385 112.063,116.385 C105.926,116.385 100.951,115.789 100.951,115.055 C100.951,114.321 105.927,113.725 112.064,113.725 C118.201,113.725 123.176,114.321 123.176,115.055" fill-opacity="0.75" fill="#AFF4B0" fill-rule="nonzero"></path>
                <path d="M112.063,65.91 L112.063,114.933" stroke="#AFF4B0" stroke-linecap="round" stroke-linejoin="round" stroke-dasharray="2.517,3.356"></path>
                <path d="M113.918,90.1 C114.282,89.894 114.656,89.703 115.038,89.53" stroke="#AFF4B0" stroke-linecap="round" stroke-linejoin="round"></path>
                <path d="M118.075,88.49 C124.49,86.93 132.141,88.583 135.785,91.262 C138.335,93.138 141.395,93.129 143.561,92.772" stroke="#AFF4B0" stroke-linecap="round" stroke-linejoin="round" stroke-dasharray="2.41,3.214"></path>
                <path d="M145.13,92.428 C145.874,92.223 146.322,92.036 146.322,92.036 L146.322,90.78" stroke="#AFF4B0" stroke-linecap="round" stroke-linejoin="round"></path>
                <path d="M146.322,87.187 L146.322,70.127" stroke="#AFF4B0" stroke-linecap="round" stroke-linejoin="round" stroke-dasharray="2.694,3.592"></path>
                <path d="M146.322,68.33 L146.322,67.072 C146.322,67.072 145.874,67.259 145.132,67.464" stroke="#AFF4B0" stroke-linecap="round" stroke-linejoin="round"></path>
                <path d="M141.965,67.98 C140.032,68.072 137.755,67.748 135.785,66.297 C131.845,63.401 123.219,61.703 116.537,63.972" stroke="#AFF4B0" stroke-linecap="round" stroke-linejoin="round" stroke-dasharray="2.41,3.214"></path>
                <path d="M115.04,64.564 C114.65796,64.7377404 114.28361,64.927918 113.918,65.134 L115.04,64.564 Z M132.212,76.94 C132.212,78.6918472 130.791847,80.112 129.04,80.112 C127.288153,80.112 125.868,78.6918472 125.868,76.94 C125.868,75.1881528 127.288153,73.768 129.04,73.768 C130.791847,73.768 132.212,75.1881528 132.212,76.94 L132.212,76.94 Z M132.212,76.94 L137.598,76.94 L132.212,76.94 Z M120.483,76.94 L125.868,76.94 L120.483,76.94 Z M91.648,51.064 C91.648,56.176 87.504,60.321 82.393,60.321 C77.2807762,60.321 73.1365,56.1767238 73.1365,51.0645 C73.1365,45.9522762 77.2807762,41.808 82.393,41.808 C84.8478438,41.8082652 87.2020383,42.7837025 88.9376875,44.5197267 C90.6733367,46.255751 91.6482652,48.6101562 91.648,51.065 L91.648,51.064 Z M75.185,51.064 C75.185,47.0831315 78.4121315,43.856 82.393,43.856 L75.185,51.064 Z" stroke="#AFF4B0" stroke-linecap="round" stroke-linejoin="round"></path>
                <path d="M82.603,58.823 C81.533,60.511 81.647,62.575 82.791,64.381 C83.936,66.188 81.714,68.786 79.467,68.079 C77.22,67.371 76.885,64.572 78.685,64.366 M83.093,59.06 C82.356,60.248 83.923,63.647 87.989,63.903 C92.056,64.158 91.552,58.853 89.415,59.373 C87.521,59.837 88.525,61.84 88.525,61.84" stroke="#AFF4B0" stroke-linecap="round" stroke-linejoin="round"></path>
                <path d="M81.522,58.97 C80.882,61.31 80.064,62.49 76.984,62.413 C74.144,62.343 73.934,65.306 75.147,66.243 M82.853,59.115 C81.531,59.798 80.749,61.087 81.057,63.329 C81.365,65.569 78.657,66.676 77.799,68.271 C76.943,69.867 78.202,70.635 79.071,70.491" stroke="#AFF4B0" stroke-linecap="round" stroke-linejoin="round"></path>
                <path d="M82.902,59.254 C82.109,59.974 81.519,61.454 83.839,63.346 C86.159,65.236 85.379,69.512 81.739,69.628 L82.902,59.254 Z M87.497,53.9 L87.405,53.686 C87.405,53.686 87.635,52.316 86.975,50.976 C87.025,50.641 87.193,49.106 86.423,48.116 C86.3347687,48.0043695 86.1938782,47.9480133 86.053,47.968 C85.606,48.03 84.603,48.228 84.063,48.753 C81.858,48.133 80.338,48.701 80.338,48.701 C80.338,48.701 78.586,48.118 77.358,48.816 C77.2340569,48.8875584 77.157789,49.0198831 77.158,49.163 C77.154,49.623 77.202,50.693 77.676,51.296 C77.676,51.296 76.236,55.086 78.866,57.476 C81.426,59.798 87.411,59.106 88.398,54.448 C88.446,54.221 87.723,53.953 87.498,53.9 L87.497,53.9 Z M207.936,27.7 C213.698,27.7 218.37,32.373 218.37,38.135 C218.37,43.897 213.698,48.569 207.936,48.569 C202.173,48.569 197.501,43.896 197.501,38.134 C197.501,32.372 202.174,27.7 207.937,27.7 L207.936,27.7 Z" stroke="#AFF4B0" stroke-linecap="round" stroke-linejoin="round"></path>
                <path d="M207.936,27.7 C213.698,27.7 218.37,32.373 218.37,38.135 C218.37,43.897 213.698,48.569 207.936,48.569 C202.173,48.569 197.501,43.896 197.501,38.134 C197.501,32.372 202.174,27.7 207.937,27.7 L207.936,27.7 Z" stroke="#AFF4B0" stroke-linecap="round" stroke-linejoin="round"></path>
                <path d="M198.324,34.067 C200.322,34.944 202.758,35.785 204.739,35.785 C208.874,35.785 209.814,33.247 214.702,33.153 C215.584,33.136 216.377,33.126 217.085,33.119 M203.89,47.754 C204.64,45.834 206.174,43.132 209.158,41.612 C212.722,39.796 215.276,41.302 217.921,41.168" stroke="#AFF4B0" stroke-linecap="round" stroke-linejoin="round"></path>
                <path d="M199.152,43.77 C200.76,43.55 203.406,42.852 205.585,40.672 C208.968,37.289 209.909,37.195 211.977,37.195 C213.671,37.195 216.185,38.961 218.33,39.032 M203.722,28.587 C205.894,28.922 208.517,29.603 210.192,30.99 C211.499,32.073 213.755,32 216.002,31.516 M201.56,29.875 C202.36,30.05 203.097,30.237 203.577,30.393 C205.157,30.903 206.553,31.09 206.15,32.213 C205.637,33.638 203.27,32.833 201.69,32.321 C201.17,32.155 200.523,31.848 199.89,31.493 M197.57,36.935 C199.656,37.233 202.56,37.935 202.86,39.545 C203.065,40.658 200.758,41.283 198.102,41.635 M205.24,48.217 C207.052,46.293 211.49,42.404 216.755,43.71" stroke="#AFF4B0" stroke-linecap="round" stroke-linejoin="round"></path>
            </g>
        </g>
    </g>
</svg>

<svg xmlns="http://www.w3.org/2000/svg" width="252" height="123" viewBox="0 0 252 123">
  <g fill="none" fill-rule="evenodd">
    <path fill="#AFF4B0" fill-opacity=".75" fill-rule="nonzero" d="M116.976 35.513c.215 6.062-4.525 11.152-10.588 11.367-4.12443.147515-7.983118-2.030627-9.988-5.638-2.16.273-4.006.987-5.036 2.37-.525.7-.85.215-.763-.267.44-2.418 1.546-5.756 4.44-8.207.38-5.542 4.895-10.013 10.57-10.214 6.06-.215 11.15 4.526 11.366 10.59"/>
    <path fill="#F5F5F5" fill-rule="nonzero" d="M105.147 37.367c-.2-.65.168-1.348.82-1.55l.59-.18c.15845-.04658.291454-.15503.36898-.300858.077523-.14583.09303-.31674.04302-.474142l-.365-1.184c-.046767-.158242-.155355-.290948-.30121-.36811-.145855-.077162-.31666-.092264-.47379-.04189l-1.183.364c-.15817.046544-.290867.154937-.368045.300633-.077177.145695-.092304.316368-.041955.473367l.18.593-2.368.726c-.547-1.776.684-4.098 2.46-4.645 1.776-.545 3.916.094 4.463 1.87.78 2.534-1.46 3.688-1.46 3.688l.365 1.185-2.368.73-.364-1.186h.003zm.636 2.072l2.37-.728.727 2.368-2.368.728-.728-2.37-.001.002z"/>
    <path stroke="#AFF4B0" stroke-width="1.186" d="M243.987 14.19c.020264 1.13571-.574032 2.193928-1.554346 2.767713-.980315.573785-2.193993.573785-3.174308 0-.980314-.573785-1.57461-1.632004-1.554346-2.767713.030566-1.713156 1.428072-3.08595 3.1415-3.08595 1.713428 0 3.110934 1.372794 3.1415 3.08595zM3.608 81.688c.024756.554983-.257226 1.07874-.734153 1.363625-.476927.284885-1.071767.284885-1.548694 0C.848226 82.76674.566243 82.242982.591 81.688c.029567-.81203.696432-1.455055 1.509-1.455055.812568 0 1.479433.643025 1.509 1.455055h-.001zM209.14 71.482l-.916-1.73c-.04414-.082963-.112037-.15086-.195-.195l-1.73-.915c-.153463-.081585-.249376-.2412-.249376-.415 0-.1738.095913-.333415.249376-.415l1.73-.916c.082666-.0442.150226-.112108.194-.195l.915-1.73c.081585-.153463.2412-.249376.415-.249376.1738 0 .333415.095913.415.249376l.915 1.73c.04388.083406.11182.151695.195.196l1.73.915c.154513.081243.251267.24143.251267.416 0 .17457-.096754.334757-.251267.416l-1.73.915c-.083107.044405-.15102.112667-.195.196l-.915 1.73c-.081585.153463-.2412.249376-.415.249376-.1738 0-.333415-.095913-.415-.249376l.002-.003zm-78.483-44.556l.575-1.87c.02899-.090058.02899-.186942 0-.277l-.575-1.872c-.05041-.166106-.00516-.346472.11769-.46911.122847-.12264.30329-.167582.46931-.11689l1.87.576c.090016.02702.185984.02702.276 0l1.87-.576c.362-.112.7.226.588.586l-.576 1.87c-.027186.090673-.027186.187327 0 .278l.576 1.87c.050896.16624.005866.346996-.11707.46993-.122934.122936-.30369.167966-.46993.11707l-1.87-.576c-.08987-.027995-.18613-.027995-.276 0l-1.87.576c-.16624.050896-.346996.005866-.46993-.11707-.122936-.122934-.167966-.30369-.11707-.46993l-.001.001zm99.956 82.827v5.86-5.86zm2.931 2.931h-5.86 5.86zM98.533.593l-4.145 4.145L98.533.593zm0 4.145L94.388.593l4.145 4.145zm73.717 39.855l-1.59 1.59 1.59-1.59zm4.422-4.423l-1.59 1.59 1.59-1.59zm-4.422 4.423c.78157.779596 2.04698.77853 2.827234-.002382.780254-.780912.780254-2.046323 0-2.827236-.780254-.780912-2.045665-.781978-2.827234-.002382-.375736.37565-.58683.88519-.58683 1.4165 0 .53131.211094 1.04085.58683 1.4165v-.001zm72.057 5.547c-.000357.45319-.242462.871767-.635116 1.098053-.392654.226287-.876203.225905-1.2685-.001s-.63374-.645862-.633384-1.099053c0-.700573.567927-1.2685 1.2685-1.2685s1.2685.567927 1.2685 1.2685v.002zm-63.369 31.548c0 .700297-.567703 1.268-1.268 1.268-.700297 0-1.268-.567703-1.268-1.268 0-.700297.567703-1.268 1.268-1.268.700297 0 1.268.567703 1.268 1.268zm68.542-3.425l-.677-1.28-1.28-.677 1.28-.678.677-1.28.677 1.28 1.28.678-1.28.677-.677 1.28zM25.21 104.615l-.676-1.28-1.28-.677 1.28-.677.677-1.28.678 1.28 1.28.678-1.28.677-.679 1.279zM197.08 9.957c-.38942-.000357-.74945.207065-.944468.544134-.19502.337068-.1954.752574-.001 1.09.1944.337426.55405.54551.943468.545866.60199 0 1.09-.48801 1.09-1.09s-.48801-1.09-1.09-1.09h.002zM68.758 16.24c-.60199 0-1.09.48801-1.09 1.09s.48801 1.09 1.09 1.09 1.09-.48801 1.09-1.09-.48801-1.09-1.09-1.09zM198.5 106.187v2.84-2.84zm1.418 1.419h-2.84 2.84zM31.29 57.01l.92-.283.924.284-.284-.922.284-.922-.923.284-.92-.284.283.922-.284.921zM15.867 19.784l2.452 1.34-2.453 1.342-1.34 2.452-1.342-2.452-2.452-1.34 2.452-1.342 1.34-2.452 1.343 2.452zM62.93 86.8l.785 2.68-2.68-.785-2.684.786.787-2.68-.786-2.684 2.684.787 2.68-.787-.786 2.683z" stroke-linecap="round" stroke-linejoin="round"/>
    <path stroke="#AFF4B0" d="M182.117 115.044c-11.516-8.396-36.27-13.705-61.882-13.703-25.61.003-50.367 5.316-61.885 13.715" stroke-linecap="round" stroke-linejoin="round"/>
    <path stroke="#AFF4B0" d="M82.82 105.32l1.725-3.98s6.018-2.046 12.584-2.046l2.963 3.15m45.321 9.112c-1.192.46-1.96 1.14-2.083 1.98-.304 2.057 3.36 4.302 8.185 5.013 4.824.71 8.98-.38 9.284-2.437.3-2.057-3.363-4.302-8.187-5.013m8.188 5.014c-.72 4.867 2.713 6.515 2.713 6.515m-20.183-9.092c-.718 4.867-4.48 5.453-4.48 5.453m7.586-1.939c-.14 2.467-2.04 3.756-2.04 3.756m14.147-5.026c-.608-1.677-5.133-2.914-6.988-2.903" stroke-linecap="round" stroke-linejoin="round"/>
    <path fill="#AFF4B0" fill-opacity=".75" fill-rule="nonzero" d="M123.175 115.055c0 .734-4.975 1.33-11.112 1.33-6.137 0-11.112-.596-11.112-1.33 0-.734 4.976-1.33 11.113-1.33s11.112.596 11.112 1.33"/>
    <path stroke="#AFF4B0" d="M112.063 65.91v49.023" stroke-linecap="round" stroke-linejoin="round" stroke-dasharray="2.517,3.356"/>
    <path stroke="#AFF4B0" d="M113.918 90.1c.364-.206.738-.397 1.12-.57" stroke-linecap="round" stroke-linejoin="round"/>
    <path stroke="#AFF4B0" d="M118.075 88.49c6.415-1.56 14.066.093 17.71 2.772 2.55 1.876 5.61 1.867 7.776 1.51" stroke-linecap="round" stroke-linejoin="round" stroke-dasharray="2.41,3.214"/>
    <path stroke="#AFF4B0" d="M145.13 92.428c.744-.205 1.192-.392 1.192-.392V90.78" stroke-linecap="round" stroke-linejoin="round"/>
    <path stroke="#AFF4B0" d="M146.322 87.187v-17.06" stroke-linecap="round" stroke-linejoin="round" stroke-dasharray="2.694,3.592"/>
    <path stroke="#AFF4B0" d="M146.322 68.33v-1.258s-.448.187-1.19.392" stroke-linecap="round" stroke-linejoin="round"/>
    <path stroke="#AFF4B0" d="M141.965 67.98c-1.933.092-4.21-.232-6.18-1.683-3.94-2.896-12.566-4.594-19.248-2.325" stroke-linecap="round" stroke-linejoin="round" stroke-dasharray="2.41,3.214"/>
    <path stroke="#AFF4B0" d="M115.04 64.564c-.38204.17374-.75639.363918-1.122.57l1.122-.57zm17.172 12.376c0 1.751847-1.420153 3.172-3.172 3.172-1.751847 0-3.172-1.420153-3.172-3.172 0-1.751847 1.420153-3.172 3.172-3.172 1.751847 0 3.172 1.420153 3.172 3.172zm0 0h5.386-5.386zm-11.729 0h5.385-5.385zM91.648 51.064c0 5.112-4.144 9.257-9.255 9.257-5.112224 0-9.2565-4.144276-9.2565-9.2565 0-5.112224 4.144276-9.2565 9.2565-9.2565 2.454844.000265 4.809038.975702 6.544687 2.711727 1.73565 1.736024 2.710578 4.09043 2.710313 6.545273v-.001zm-16.463 0c0-3.980868 3.22713-7.208 7.208-7.208l-7.208 7.208z" stroke-linecap="round" stroke-linejoin="round"/>
    <path stroke="#AFF4B0" d="M82.603 58.823c-1.07 1.688-.956 3.752.188 5.558 1.145 1.807-1.077 4.405-3.324 3.698-2.247-.708-2.582-3.507-.782-3.713m4.408-5.306c-.737 1.188.83 4.587 4.896 4.843 4.067.255 3.563-5.05 1.426-4.53-1.894.464-.89 2.467-.89 2.467" stroke-linecap="round" stroke-linejoin="round"/>
    <path stroke="#AFF4B0" d="M81.522 58.97c-.64 2.34-1.458 3.52-4.538 3.443-2.84-.07-3.05 2.893-1.837 3.83m7.706-7.128c-1.322.683-2.104 1.972-1.796 4.214.308 2.24-2.4 3.347-3.258 4.942-.856 1.596.403 2.364 1.272 2.22" stroke-linecap="round" stroke-linejoin="round"/>
    <path stroke="#AFF4B0" d="M82.902 59.254c-.793.72-1.383 2.2.937 4.092 2.32 1.89 1.54 6.166-2.1 6.282l1.163-10.374zm4.595-5.354l-.092-.214s.23-1.37-.43-2.71c.05-.335.218-1.87-.552-2.86-.08823-.11163-.229122-.167987-.37-.148-.447.062-1.45.26-1.99.785-2.205-.62-3.725-.052-3.725-.052s-1.752-.583-2.98.115c-.123943.071558-.20021.203883-.2.347-.004.46.044 1.53.518 2.133 0 0-1.44 3.79 1.19 6.18 2.56 2.322 8.545 1.63 9.532-3.028.048-.227-.675-.495-.9-.548h-.001zm120.439-26.2c5.762 0 10.434 4.673 10.434 10.435 0 5.762-4.672 10.434-10.434 10.434-5.763 0-10.435-4.673-10.435-10.435 0-5.762 4.673-10.434 10.436-10.434h-.001z" stroke-linecap="round" stroke-linejoin="round"/>
    <path stroke="#AFF4B0" d="M207.936 27.7c5.762 0 10.434 4.673 10.434 10.435 0 5.762-4.672 10.434-10.434 10.434-5.763 0-10.435-4.673-10.435-10.435 0-5.762 4.673-10.434 10.436-10.434h-.001z" stroke-linecap="round" stroke-linejoin="round"/>
    <path stroke="#AFF4B0" d="M198.324 34.067c1.998.877 4.434 1.718 6.415 1.718 4.135 0 5.075-2.538 9.963-2.632.882-.017 1.675-.027 2.383-.034M203.89 47.754c.75-1.92 2.284-4.622 5.268-6.142 3.564-1.816 6.118-.31 8.763-.444" stroke-linecap="round" stroke-linejoin="round"/>
    <path stroke="#AFF4B0" d="M199.152 43.77c1.608-.22 4.254-.918 6.433-3.098 3.383-3.383 4.324-3.477 6.392-3.477 1.694 0 4.208 1.766 6.353 1.837m-14.608-10.445c2.172.335 4.795 1.016 6.47 2.403 1.307 1.083 3.563 1.01 5.81.526m-14.442-1.641c.8.175 1.537.362 2.017.518 1.58.51 2.976.697 2.573 1.82-.513 1.425-2.88.62-4.46.108-.52-.166-1.167-.473-1.8-.828m-2.32 5.442c2.086.298 4.99 1 5.29 2.61.205 1.113-2.102 1.738-4.758 2.09m7.138 6.582c1.812-1.924 6.25-5.813 11.515-4.507" stroke-linecap="round" stroke-linejoin="round"/>
  </g>
</svg>
